icons/templates-16.svg

<?xml version="1.0" encoding="UTF-8"?><svg id="icons" xmlns="http://www.w3.org/2000/svg" viewBox="0 0 16 16"><defs><style>.cls-1{fill:none;}.cls-1,.cls-2{stroke-width:0px;}</style></defs><rect class="cls-1" width="16" height="16"/><path class="cls-2" d="M13.33331,1H2.66669c-.91962,0-1.66669.80621-1.66669,1.79486v10.41028c0,.9903.74707,1.79486,1.66669,1.79486h10.66663c.91962,0,1.66669-.80457,1.66669-1.79486V2.79486c0-.98865-.74707-1.79486-1.66669-1.79486ZM14,13.09088c0,.50208-.37311.90912-.83331.90912H2.83331c-.46021,0-.83331-.40704-.83331-.90912V2.90906c0-.50208.37311-.90906.83331-.90906h10.33337c.46021,0,.83331.40698.83331.90906v10.18182ZM5,13h-2v-2h2v2ZM5,9h-2v-2h2v2ZM5,5h-2v-2h2v2ZM13,4h-7v-1h7v1ZM13,12h-7v-1h7v1ZM13,8h-7v-1h7v1Z"/></svg>

<svg xmlns="http://www.w3.org/2000/svg" viewBox="0 0 16 16"><path stroke-width="0" fill="none" d="M0 0h16v16H0z"/><path d="M13.333 1H2.667C1.747 1 1 1.806 1 2.795v10.41C1 14.195 1.747 15 2.667 15h10.666c.92 0 1.667-.805 1.667-1.795V2.795C15 1.806 14.253 1 13.333 1zM14 13.09c0 .503-.373.91-.833.91H2.833c-.46 0-.833-.407-.833-.91V2.91c0-.503.373-.91.833-.91h10.334c.46 0 .833.407.833.91v10.18zM5 13H3v-2h2v2zm0-4H3V7h2v2zm0-4H3V3h2v2zm8-1H6V3h7v1zm0 8H6v-1h7v1zm0-4H6V7h7v1z" stroke-width="0"/></svg>
